!!!COM: Palestrina, Giovanni Perluigi da
!!!OPR: Quando lieta sperai
!!!OTL: Kyrie
**kern	**kern	**kern	**kern	**kern
*Ibass	*Ibarit	*Itenor	*Icalto	*Icant
!Bassus	!Baritone	!Tenor	!Altus	!Cantus
*clefF4	*clefF4	*clefGv2	*clefG2	*clefG2
*k[]	*k[]	*k[]	*k[]	*k[]
*A:aeo	*A:aeo	*A:aeo	*A:aeo	*A:aeo
*M4/2	*M4/2	*M4/2	*M4/2	*M4/2
=1	=1	=1	=1	=1
0r	0r	1e	0r	1e
.	.	2d	.	2f
.	.	2c	.	2e
=2	=2	=2	=2	=2
0r	1r	2d	1r	2f
.	.	2e	.	2g
.	1e	1A	1e	[1a
=3	=3	=3	=3	=3
0r	2d	2r	2f	2a]
.	2c	2A	2e	2a
.	2d	2d	2f	2a
.	2B	2d	2g	2b
=4	=4	=4	=4	=4
0r	2A	2.e	2a	2cc
.	2E	.	2g	2.b
.	.	4d	.	.
.	2F	2c	1f	.
.	.	.	.	4a
.	2D	2d	.	[2a
=5	=5	=5	=5	=5
1E	2r	1B	1e	2a]
.	2E	.	.	2g#
2D	2F	1r	2r	1a
2C	2E	.	2e	.
=6	=6	=6	=6	=6
2D	2F	1r	2d	1r
2E	2G	.	2B	.
1AA	[1A	1e	1c#	2r
.	.	.	.	2e
=7	=7	=7	=7	=7
2D	2A]	2d	2d	2f
2A	2A	2c#	2e	2e
2D	2A	2d	2.d	2f
2G	2B	2B	.	2g
.	.	.	4e	.
=8	=8	=8	=8	=8
2F	2c	2A	4f	2a
.	.	.	4c	.
2G	2.B	2E	2.e	4g
.	.	.	.	4f
1A	.	2.c	.	1e
.	4A	.	4d	.
.	[2A	.	2c	.
.	.	4d	.	.
=9	=9	=9	=9	=9
1E	2A]	1.e	1B	2r
.	2G#	.	.	2b
2r	1A	.	1A	2cc
2A	.	2c	.	2a
=10	=10	=10	=10	=10
2G	0r	1d	2r	4b
.	.	.	.	4cc
2F	.	.	2a	1dd
2G	.	1e	2g	.
2A	.	.	2e	2cc#
=11	=11	=11	=11	=11
1D	2r	1d	2.f	1dd
.	2d	.	.	.
.	.	.	4d	.
1r	2c	1r	4e	1g
.	.	.	4f	.
.	2B	.	[2g	.
=12	=12	=12	=12	=12
1r	2c	1r	2g]	1a
.	2d	.	2f#	.
2r	4G	2r	1g	1g
.	4A	.	.	.
2E	4B	2e	.	.
.	4c	.	.	.
=13	=13	=13	=13	=13
2F	2A	2d	0r	0r
2E	2G	2c	.	.
2F	2A	2d	.	.
2G	[2d	2B	.	.
=14	=14	=14	=14	=14
1A	2d]	1A	2r	2r
.	2c#	.	2e	2e
2r	2d	1r	2d	2f
2A	2A	.	2c#	2e
=15	=15	=15	=15	=15
2D	1r	1r	2d	2f
2E	.	.	2B	2g
1F	2r	1c	4A	2.a
.	.	.	4B	.
.	2A	.	4c	.
.	.	.	4d	4b
=16	=16	=16	=16	=16
1C	2G	2c	1e	1cc
.	1c	2c	.	.
1G	.	1d	2r	1r
.	4B	.	2g	.
.	4A	.	.	.
=17	=17	=17	=17	=17
1E	2.B	1e	2g	0r
.	.	.	2g	.
.	4c	.	.	.
1F	4A	2c	1a	.
.	4B	.	.	.
.	[2c	2f	.	.
=18	=18	=18	=18	=18
1G	2c]	2e	1.g	1r
.	2B	2d	.	.
2E	2G	2.c	.	2r
[2F	[2A	.	[2c	2cc
.	.	4B	.	.
=19	=19	=19	=19	=19
2F]	2A]	2A	4c]	2cc
.	.	.	4d	.
2E	2G	1c	2e	2cc
1D	1F	.	1f	1dd
.	.	2B	.	.
=20	=20	=20	=20	=20
0C	2r	2.c	2.e	0ee
.	2c	.	.	.
.	.	4d	4f	.
.	2c	4e	2g	.
.	.	4f	.	.
.	2c	[2g	2cc	.
=21	=21	=21	=21	=21
1r	1d	2g]	2b	1dd
.	.	2f	2.a	.
2r	[1e	2.e	.	2b
.	.	.	4g	.
2C	.	.	2g	[2cc
.	.	4f	.	.
=22	=22	=22	=22	=22
2C	1e]	2g	2e	2cc]
2C	.	2e	1g	4b
.	.	.	.	4a
1D	1r	2.d	.	2b
.	.	.	2f	2a
.	.	4c	.	.
=23	=23	=23	=23	=23
2E	2r	1B	2.e	4g
.	.	.	.	4e
2.E	2G	.	.	4g
.	.	.	4f	4a
.	2G	[1e	1g	2b
4D	.	.	.	.
4C	2G	.	.	[2cc
4BB	.	.	.	.
=24	=24	=24	=24	=24
1AA	1A	2e]	4c	4cc]
.	.	.	4d	4b
.	.	2c	4e	2a
.	.	.	4f	.
[1E	2B	2B	[1e	2g#
.	2c	2A	.	[2a
=25	=25	=25	=25	=25
1E]	1B	2B	1e]	2a]
.	.	2e	.	2g#
[1AA	[1A	[1c#	[1e	[1a
=26	=26	=26	=26	=26
1AA]	1A]	1c#]	1e]	1a]
!! Christe
*Ibass	*Ibarit	*Itenor	*Icalto	*Icant
!Bassus	!Baritone	!Tenor	!Altus	!Cantus
*clefF4	*clefF4	*clefGv2	*clefG2	*clefG2
*k[]	*k[]	*k[]	*k[]	*k[]
*A:aeo	*A:aeo	*A:aeo	*A:aeo	*A:aeo
*M4/2	*M4/2	*M4/2	*M4/2	*M4/2
=27	=27	=27	=27	=27
1E	1B	1r	0r	0r
[1A	[1c	1A	.	.
=28	=28	=28	=28	=28
2A]	2c]	1.e	2r	0r
2G	2B	.	1e	.
2A	2c	.	.	.
2F	2A	2d	[2a	.
=29	=29	=29	=29	=29
1E	1B	1e	2a]	0r
.	.	.	2g	.
[1D	[1d	[1f	2a	.
.	.	.	2b-	.
=30	=30	=30	=30	=30
1D]	2d]	1f]	1a	0r
.	2d	.	.	.
2E	2B	1e	2g	.
2C	2c	.	2e	.
=31	=31	=31	=31	=31
2.D	4B	1d	1f	2r
.	4A	.	.	.
.	1A	.	.	2a
4C	.	.	.	.
1BB	.	2r	1d	[1dd
.	2G#	2d	.	.
=32	=32	=32	=32	=32
2AA	1A	2f	2r	2dd]
2A	.	2e	2e	2cc
2D	2r	2f	2a	2dd
2E	2E	4e	2g#	2b
.	.	4d	.	.
=33	=33	=33	=33	=33
1F	1.A	1c	2a	2a
.	.	.	2A	1cc
1E	.	2r	[1e	.
.	2G	2e	.	2b
=34	=34	=34	=34	=34
1r	2A	2c	2e]	1a
.	2F	2A	2d	.
2r	1E	1B	2.e	2.g
[2G	.	.	.	.
.	.	.	4f	4f
=35	=35	=35	=35	=35
2G]	1C	2r	1g	1e
1c	.	2c	.	.
.	1r	[1g	2G	1d
2B	.	.	2d	.
=36	=36	=36	=36	=36
2c	0r	2g]	2e	2g
2A	.	2f	2c	1cc
[1G	.	2g	2d	.
.	.	2e	[2g	4b
.	.	.	.	4a
=37	=37	=37	=37	=37
1G]	0r	2d	4g]	1b
.	.	.	4f	.
.	.	2g	4e	.
.	.	.	4d	.
2A	.	2e	2c	2cc
2F	.	2f	2d	[2a
=38	=38	=38	=38	=38
2G	2r	2d	1B	4a]
.	.	.	.	4g
2E	2G	1e	.	1g
1A	[1c	.	1r	.
.	.	4d	.	2f#
.	.	4c	.	.
=39	=39	=39	=39	=39
1G	2c]	1d	2r	1g
.	2B	.	2d	.
2C	2c	2e	2g	1r
2D	2A	4d	2f	.
.	.	4c	.	.
=40	=40	=40	=40	=40
1E	2G	2B	2g	0r
.	2.B	2G	1e	.
1F	.	1A	.	.
.	4A	.	.	.
.	[2A	.	2d	.
=41	=41	=41	=41	=41
1E	2A]	1B	2e	1b
.	2G#	.	1e	.
1AA	1A	1r	.	1cc
.	.	.	[2f#	.
=42	=42	=42	=42	=42
0r	1B	1r	2f#]	1dd
.	.	.	1g	.
.	1c	1e	.	1g
.	.	.	2e	.
=43	=43	=43	=43	=43
1r	1d	1f#	1a	2.dd
.	.	.	.	4cc
1E	1G	1g	2r	2b
.	.	.	2g	2cc
=44	=44	=44	=44	=44
1F	2A	1c	2.f	1a
.	1c	.	.	.
.	.	.	4e	.
1G	.	2.g	1d	1g
.	2B	.	.	.
.	.	4f	.	.
=45	=45	=45	=45	=45
1C	2c	4e	0g	1r
.	.	4d	.	.
.	1e	2c	.	.
2.G	.	2B	.	1b
.	[2d	[2G	.	.
4F	.	.	.	.
=46	=46	=46	=46	=46
2E	4d]	2G]	0r	1cc
.	4c	.	.	.
2F	1c	2A	.	.
1D	.	1F	.	1dd
.	2B	.	.	.
=47	=47	=47	=47	=47
1C	1c	2r	1e	1g
.	.	2c	.	.
1D	1r	2B	1f#	2.dd
.	.	2A	.	.
.	.	.	.	4cc
=48	=48	=48	=48	=48
1E	2r	2G	1g	2b
.	2E	2g	.	2cc
1r	1F	2f	1c	2a
.	.	2e	.	[2cc
=49	=49	=49	=49	=49
0r	1G	1d	2.g	2cc]
.	.	.	.	2b
.	.	.	4f	.
.	2C	2c	2e	2cc
.	[2c	2F	2f	2a
=50	=50	=50	=50	=50
1r	2c]	1G	1d	1.g
.	2B	.	.	.
1C	1e	2r	1c	.
.	.	[2g	.	2cc
=51	=51	=51	=51	=51
1D	2.d	2g]	1r	2b
.	.	2f	.	1a
.	4c	.	.	.
1E	1B	2.e	2r	.
.	.	.	[2e	2g#
.	.	4d	.	.
=52	=52	=52	=52	=52
1AA	2A	4c	2e]	1a
.	.	4B	.	.
.	2c	2A	2f	.
2.E	1B	2G	2g	2r
.	.	[2B	[2e	2g
4D	.	.	.	.
=53	=53	=53	=53	=53
2C	1r	2B]	2e]	1a
2D	.	1A	2f	.
1BB	1B	.	1d	1b
.	.	2G#	.	.
=54	=54	=54	=54	=54
1AA	1c#	1.A	2r	2e
.	.	.	2e	1a
1D	1d	.	1f#	.
.	.	2d	.	[2b
=55	=55	=55	=55	=55
1E	1G	2B	1g	2b]
.	.	2e	.	1cc
2F#	2.d	2A	2a	.
[2G	.	2B	[2g	[2b
.	4c	.	.	.
=56	=56	=56	=56	=56
2G]	2B	1G	4g]	4b]
.	.	.	4f	4a
2C	2c	.	2e	1g
1D	1A	2r	1d	.
.	.	2d	.	2f#
=57	=57	=57	=57	=57
[0G	[0G	1d	2.B	[0g
.	.	.	4c	.
.	.	1B	[1d	.
=58	=58	=58	=58	=58
0G]	0G]	0B	0d]	0g]
=59	=59	=59	=59	=59
0r	1r	1.d	0r	0r
.	[1A	.	.	.
.	.	2c	.	.
=60	=60	=60	=60	=60
0r	2A]	2c	1.e	0r
.	2G	4B	.	.
.	.	4A	.	.
.	1G	1B	.	.
.	.	.	2d	.
=61	=61	=61	=61	=61
0r	1F	1A	1d	1.a
.	[1E	2r	2c	.
.	.	[2e	4B	2g
.	.	.	4A	.
=62	=62	=62	=62	=62
0r	2E]	2e]	1B	1g
.	2G	2d	.	.
.	2D	1d	1A	2.f
.	4D	.	.	.
.	4E	.	.	4g
=63	=63	=63	=63	=63
1.A	4F	2.c	0r	4a
.	4G	.	.	4b
.	4A	.	.	1cc
.	4B	4d	.	.
.	4c	4e	.	.
.	4d	4f	.	.
2G	2e	[2g	.	4b
.	.	.	.	4a
=64	=64	=64	=64	=64
1G	2d	4g]	1r	1b
.	.	4f	.	.
.	2B	1e	.	.
1F	2c	.	2r	1a
.	2A	2d	[2a	.
=65	=65	=65	=65	=65
0E	0B	0e	2a]	1r
.	.	.	2g	.
.	.	.	1g	[1b
=66	=66	=66	=66	=66
0r	1.d	2r	2.f	2b]
.	.	1f	.	2a
.	.	.	4g	.
.	.	.	4a	[1a
.	.	.	4b	.
.	2c	2e	[2cc	.
=67	=67	=67	=67	=67
0r	1A	1e	4cc]	1a]
.	.	.	4b	.
.	.	.	1a	.
.	1B	1d	.	[1dd
.	.	.	2g#	.
=68	=68	=68	=68	=68
2r	1A	1e	2.a	2dd]
2.A	.	.	.	4cc
.	.	.	8g	4b
.	.	.	8f	.
.	1r	2r	1e	1cc
4A	.	.	.	.
2A	.	[2e	.	.
=69	=69	=69	=69	=69
2G	0r	4e]	2r	0b
.	.	4e	.	.
2E	.	2e	2.g	.
1G	.	2d	.	.
.	.	.	4g	.
.	.	2B	2g	.
=70	=70	=70	=70	=70
0D	2r	1d	2f	1a
.	2.d	.	2d	.
.	.	2.A	1f	2r
.	4d	.	.	.
.	2d	.	.	[2a
.	.	4B	.	.
=71	=71	=71	=71	=71
1A	2c	4c	2e	4a]
.	.	4d	.	4a
.	2A	1e	4c	2a
.	.	.	4d	.
1r	1c	.	4e	2g
.	.	.	4f	.
.	.	2c	[2g	2e
=72	=72	=72	=72	=72
0r	1C	1c	4g]	1g
.	.	.	4f	.
.	.	.	1e	.
.	1D	2r	.	1f
.	.	2A	2d	.
=73	=73	=73	=73	=73
1AA	2A	2.c	1e	2e
.	1E	.	.	2a
.	.	4d	.	.
2.C	.	2.e	1r	2g
.	[2G	.	.	2cc
4D	.	4f	.	.
=74	=74	=74	=74	=74
2.E	4G]	2.g	1r	0b
.	4A	.	.	.
.	2.B	.	.	.
4F	.	8f	.	.
.	.	8e	.	.
2.G	.	2d	2r	.
.	4A	.	.	.
.	4B	2G	2d	.
8F	4c	.	.	.
8E	.	.	.	.
=75	=75	=75	=75	=75
2D	2d	2A	2f	0r
2E	1c	1e	2g	.
1F	.	.	1a	.
.	4B	2d	.	.
.	4A	.	.	.
=76	=76	=76	=76	=76
0E	1B	2.e	2.g	2r
.	.	.	.	2e
.	.	4d	4f	.
.	2r	2c	1e	2.g
.	2E	[2B	.	.
.	.	.	.	4a
=77	=77	=77	=77	=77
0r	2.G	4B]	1d	2.b
.	.	4c	.	.
.	.	2d	.	.
.	4A	.	.	4cc
.	2.B	1G	2r	2.dd
.	.	.	2d	.
.	4c	.	.	8cc
.	.	.	.	8b
=78	=78	=78	=78	=78
1D	2.d	0r	2.f	2a
.	.	.	.	2dd
.	8c	.	4g	.
.	8B	.	.	.
2F	2A	.	2a	2cc
2G	2B	.	4g	[2b
.	.	.	4f	.
=79	=79	=79	=79	=79
2.A	2.c	1r	1e	4b]
.	.	.	.	4a
.	.	.	.	1a
8G	8B	.	.	.
8F	8A	.	.	.
1E	1B	2r	2e	.
.	.	2B	[2e	2g#
=80	=80	=80	=80	=80
2A	0A	2c	2e]	[0a
2D	.	2d	1d	.
2AA	.	1e	.	.
2A	.	.	2c	.
=81	=81	=81	=81	=81
2D	1r	2f	2d	0a]
2A	.	2c	2e	.
4D	2r	1d	2.f	.
4E	.	.	.	.
4F	2D	.	.	.
4G	.	.	8e	.
.	.	.	8d	.
=82	=82	=82	=82	=82
1A	2.F	2r	2c	1r
.	.	2A	2f	.
.	4G	.	.	.
2r	2A	2.c	2e	2r
2AA	[2c	.	2a	[2e
.	.	4d	.	.
=83	=83	=83	=83	=83
2.C	2c]	2.e	2.g	2e]
.	4B	.	.	2.g
4D	4A	4f	4f	.
2.E	2.G	2.g	[1e	.
.	.	.	.	4a
.	.	.	.	[2b
4F	4A	8f	.	.
.	.	8e	.	.
=84	=84	=84	=84	=84
2.G	2.B	2d	2e]	4b]
.	.	.	.	4cc
.	.	2g	2d	2.dd
8F	4c	.	.	.
8E	.	.	.	.
2D	2d	2f	2f	.
.	.	.	.	4a
2E	4c	[2e	2g	[2cc
.	4B	.	.	.
=85	=85	=85	=85	=85
1F	1A	4e]	1a	4cc]
.	.	8d	.	4b
.	.	8c	.	.
.	.	2d	.	1a
1E	1B	1e	2r	.
.	.	.	[2e	2g#
=86	=86	=86	=86	=86
2r	[0A	2r	2e]	[0a
2AA	.	1e	2.c#	.
2AA	.	.	.	.
.	.	.	4d	.
2AA	.	2c#	2e	.
=87	=87	=87	=87	=87
1.D	0A]	2.d	1f	0a]
.	.	4e	.	.
.	.	2f	2d	.
2C#	.	2e	2e	.
=88	=88	=88	=88	=88
0D	[0A	0d	0f	[0a
=89	=89	=89	=89	=89
0AA	0A]	0c#	0e	0a]
==	==	==	==	==
*-	*-	*-	*-	*-
!!!CDT: 1525/^1526/-1594/2/2
!!!OCY: Italia
!!!AGN: Mass (Parody)
!!!AST: renaissance, vocal
!!!ASW: Madrigal 1548 (anon (Rore, Morales))
!!!PWK: Masses, Book 11
!!!RNB: Cadence finals: G,E
!!!YOR: Le Opere Complete, v. 28, p. 73
!!!YOO: Rome, Italy: Fratelli Scalera
!!!END: 1992//
!!!EED: John Miller
!!!YEC: Copyright 2000, John Miller
!!!YEN: United States of America
!!!YEM: Rights to all derivative electronic formats reserved.
!!!YEM: Refer to licensing agreement for further details.
!!!YEM: This file must be accompanied by the licensing agreement.
!!!YEM: A copy of the licensing agreement may be found at http://www.music-cog.ohio-state.edu/HumdrumDatabases/Palestrina/license.txt
!!!EMD: converted to Humdrum by Bret Aarden
